X:1
T: Miss Abercromby's Reel
C:William Marshall
R:Reel
Q: 232
K:Cm
M:4/4
L:1/8
|:ED CD EF GE|FB FB DB, FD|ED CD EF Gc|BG FD C1/2C1/2C C2|
ED CD EF GE|FB FB DB, FD|ED CD EF Gc|BG FD C1/2C1/2C C2|
ed cd ef ge|dc Bc de fd|ed cd ef ge|dc Bd c1/2c1/2c c2|
ed cd ef ge|dc Bc de fd|ge fd ec dB|GB FD C1/2C1/2C C2:|
